packages/kaspersky-hexa-ui-icons/src/iconsSVGs/48/Attribution.svg

<svg width="48" height="48" viewBox="0 0 48 48" fill="none" xmlns="http://www.w3.org/2000/svg">
<path fill-rule="evenodd" clip-rule="evenodd" d="M27.1059 17.9069C26.5536 17.9069 26.1059 18.3546 26.1059 18.9069V29.3643C26.1059 29.9166 26.5536 30.3643 27.1059 30.3643H35.9287C36.481 30.3643 36.9287 29.9166 36.9287 29.3643V22.6814C36.9287 22.4578 36.8538 22.2407 36.7159 22.0647L33.7586 18.2901C33.5691 18.0482 33.2788 17.9069 32.9714 17.9069H27.1059ZM31.8224 22.1058V19.9069H28.1059V28.3643H34.9287V23.1058H32.8224C32.2701 23.1058 31.8224 22.6581 31.8224 22.1058Z" fill="black"/>
<path fill-rule="evenodd" clip-rule="evenodd" d="M7.23847 0.0410064C7.78567 0.115788 8.16864 0.620002 8.09386 1.1672C7.96053 2.14278 8.01884 3.18118 8.26621 4.21209H21.356C21.9083 4.21209 22.356 4.65981 22.356 5.21209C22.356 5.76438 21.9083 6.21209 21.356 6.21209H8.99668C9.72654 7.67488 10.8648 9.02082 12.403 10.0237C14.2189 11.2075 15.9968 12.2014 17.6712 13.1353L17.7514 13.18C19.0995 13.9319 20.3937 14.6537 21.5557 15.3975C23.9749 12.8061 27.4213 11.186 31.2461 11.186C38.5659 11.186 44.4999 17.1199 44.4999 24.4398C44.4999 28.2076 42.9276 31.6082 40.4034 34.0214L47.5591 41.1771C47.9496 41.5676 47.9496 42.2007 47.5591 42.5913C47.1686 42.9818 46.5354 42.9818 46.1449 42.5913L38.8502 35.2966C36.6976 36.807 34.0754 37.6936 31.2461 37.6936C24.3606 37.6936 18.7015 32.4431 18.054 25.7274L11.0747 25.7275C10.5224 25.7275 10.0747 25.2797 10.0747 24.7275C10.0747 24.1752 10.5224 23.7275 11.0747 23.7275L18.0111 23.7274C18.1435 21.2277 18.9685 18.9116 20.2978 16.9677C19.2349 16.2975 18.0381 15.63 16.7255 14.8979L16.697 14.882C15.0272 13.9507 13.1923 12.9257 11.3108 11.6991C7.40738 9.15429 5.5886 4.72834 6.11228 0.896394C6.18706 0.349195 6.69127 -0.0337748 7.23847 0.0410064ZM19.9923 24.4398C19.9923 18.2245 25.0308 13.186 31.2461 13.186C37.4614 13.186 42.4999 18.2245 42.4999 24.4398C42.4999 30.6551 37.4614 35.6936 31.2461 35.6936C25.0308 35.6936 19.9923 30.6551 19.9923 24.4398Z" fill="black"/>
<path d="M26.231 0.0566013C26.7819 0.0167803 27.2607 0.431049 27.3005 0.981896C27.5124 3.91245 26.4114 6.51666 25.0257 8.51121C23.6457 10.4974 21.9201 11.9722 20.7086 12.6602C20.2283 12.9329 19.6179 12.7647 19.3452 12.2844C19.0724 11.8042 19.2407 11.1938 19.7209 10.921C20.6501 10.3933 22.159 9.13209 23.3832 7.37006C24.6016 5.61638 25.4745 3.46013 25.3057 1.1261C25.2659 0.575253 25.6802 0.0964223 26.231 0.0566013Z" fill="black"/>
<path fill-rule="evenodd" clip-rule="evenodd" d="M13.2306 16.6782C13.691 16.3732 13.8169 15.7527 13.5119 15.2923C13.2069 14.8319 12.5864 14.7059 12.126 15.0109C10.9948 15.7603 9.37686 17.0974 8.09639 18.8411C6.81822 20.5818 5.80568 22.8285 6.09965 25.3455C6.45289 28.3702 7.86756 30.3279 9.78171 31.8334C11.1311 32.8947 12.7895 33.7674 14.4499 34.6413C15.0382 34.9508 15.6273 35.2609 16.2024 35.5791C19.532 37.4219 21.3336 38.4868 22.4996 39.5151C23.3674 40.2805 23.8917 41.0339 24.4193 42.1788H12.2534C11.7011 42.1788 11.2534 42.6265 11.2534 43.1788C11.2534 43.7311 11.7011 44.1788 12.2534 44.1788H25.181C25.3555 44.823 25.431 45.3899 25.4592 45.8342C25.4802 46.1653 25.475 46.4267 25.4654 46.599C25.4606 46.685 25.4548 46.7485 25.4507 46.787L25.4493 46.7996L25.4462 46.8256L25.446 46.8269L25.4456 46.8296C25.365 47.3735 25.739 47.8811 26.2832 47.9646C26.8291 48.0484 27.3395 47.6738 27.4233 47.1279L26.4348 46.9762C27.4233 47.1279 27.4232 47.1282 27.4233 47.1279L27.4235 47.1264L27.4237 47.1248L27.4243 47.1211L27.4257 47.1117L27.4293 47.0847C27.4321 47.0632 27.4356 47.0346 27.4394 46.9994C27.4469 46.929 27.4556 46.8316 27.4623 46.71C27.4758 46.4668 27.4818 46.1256 27.4552 45.7073C27.402 44.8714 27.2186 43.7217 26.7019 42.4337C25.9469 40.5515 25.2534 39.277 23.8224 38.0151C22.4597 36.8133 20.4455 35.6416 17.1708 33.8293C16.4972 33.4564 15.8488 33.1151 15.228 32.7883C13.6291 31.9466 12.213 31.2011 11.0181 30.2613C9.44578 29.0247 8.36719 27.52 8.08614 25.1135C7.87267 23.2857 8.59566 21.5403 9.70846 20.0249C10.819 18.5126 12.2474 17.3296 13.2306 16.6782Z" fill="black"/>
<path d="M13.7083 36.2818C13.9873 36.7584 13.827 37.371 13.3503 37.6499C8.29766 40.6069 7.80374 45.0635 8.06114 46.8379C8.14042 47.3845 7.76162 47.8918 7.21506 47.9711C6.66849 48.0504 6.16114 47.6716 6.08186 47.125C5.73075 44.7046 6.4551 39.3679 12.3401 35.9238C12.8168 35.6448 13.4293 35.8051 13.7083 36.2818Z" fill="black"/>
</svg>

<svg xmlns="http://www.w3.org/2000/svg" width="48" height="48" fill="none" viewBox="0 0 48 48"><path fill="#000" fill-rule="evenodd" d="M7.2385.041c.5472.0748.9301.579.8554 1.1262-.1334.9756-.075 2.014.1723 3.0449H21.356c.5523 0 1 .4477 1 1s-.4477 1-1 1H8.9967c.7298 1.4628 1.8681 2.8087 3.4063 3.8116 1.8159 1.1838 3.5938 2.1777 5.2682 3.1116l.0802.0448c1.3481.7518 2.6423 1.4736 3.8043 2.2174 2.4192-2.5914 5.8656-4.2115 9.6904-4.2115 7.3198 0 13.2538 5.9339 13.2538 13.2538 0 3.7678-1.5723 7.1684-4.0965 9.5816l7.1557 7.1557c.3905.3905.3905 1.0237 0 1.4142s-1.0237.3905-1.4142 0l-7.2947-7.2947c-2.1526 1.5104-4.7748 2.397-7.6041 2.397-6.8855 0-12.5446-5.2505-13.1921-11.9661h-6.9793c-.5523 0-1-.4478-1-1s.4477-1 1-1h6.9364a13.18 13.18 0 0 1 2.2867-6.7598c-1.0629-.6702-2.2597-1.3377-3.5723-2.0698l-.0285-.0159c-1.6698-.9313-3.5047-1.9563-5.3862-3.1829C7.4074 9.1543 5.5886 4.7283 6.1123.8964c.0748-.5472.579-.9302 1.1262-.8554M26.231.0566c.5509-.0398 1.0297.3745 1.0695.9253.2119 2.9306-.8891 5.5348-2.2748 7.5293-1.38 1.9862-3.1057 3.461-4.3172 4.149-.4802.2727-1.0906.1045-1.3633-.3758-.2728-.4802-.1045-1.0906.3757-1.3633.9292-.5278 2.4381-1.789 3.6623-3.551 1.2184-1.7537 2.0913-3.91 1.9225-6.244-.0398-.5508.3745-1.0297.9253-1.0695m-6.2387 24.3832c0-6.2153 5.0385-11.2538 11.2538-11.2538s11.2538 5.0385 11.2538 11.2538-5.0385 11.2538-11.2538 11.2538-11.2538-5.0385-11.2538-11.2538m-6.4804-9.1475c.305.4604.1791 1.0809-.2813 1.3859-.9832.6514-2.4116 1.8344-3.5221 3.3467-1.1128 1.5154-1.8358 3.2608-1.6224 5.0886.281 2.4065 1.3597 3.9112 2.932 5.1478 1.1949.9398 2.611 1.6853 4.2099 2.527.6208.3268 1.2692.6681 1.9428 1.041 3.2747 1.8123 5.2889 2.984 6.6516 4.1858 1.431 1.2619 2.1245 2.5364 2.8795 4.4186.5167 1.288.7001 2.4377.7533 3.2736.0266.4183.0206.7595.0071 1.0027a6 6 0 0 1-.0229.2894 4 4 0 0 1-.0101.0853l-.0036.027-.0014.0094-.0006.0037-.0002.0016-.0002.0015c-.0838.5459-.5942.9205-1.1401.8367-.5442-.0835-.9182-.5911-.8376-1.135l.0004-.0027.0002-.0013.0031-.026.0014-.0126a4 4 0 0 0 .0147-.188c.0096-.1723.0148-.4337-.0062-.7648-.0282-.4443-.1037-1.0112-.2782-1.6554H12.2534c-.5523 0-1-.4477-1-1s.4477-1 1-1h12.1659c-.5276-1.1449-1.0519-1.8983-1.9197-2.6637-1.166-1.0283-2.9676-2.0932-6.2972-3.9359-.5751-.3183-1.1642-.6283-1.7525-.9379-1.6604-.8739-3.3188-1.7466-4.6682-2.8079-1.9141-1.5055-3.3288-3.4632-3.682-6.4879-.294-2.517.7185-4.7637 1.9967-6.5044 1.2805-1.7437 2.8984-3.0808 4.0296-3.8302.4604-.305 1.0809-.179 1.3859.2814m12.594 3.6146c0-.5523.4477-1 1-1h5.8655a1 1 0 0 1 .7872.3832l2.9573 3.7746a1 1 0 0 1 .2128.6167v6.6829c0 .5523-.4477 1-1 1h-8.8228c-.5523 0-1-.4477-1-1zm5.7165 1v2.1989c0 .5523.4477 1 1 1h2.1063v5.2585h-6.8228v-8.4574zM13.7083 36.2818c.279.4766.1187 1.0892-.358 1.3681-5.0526 2.957-5.5466 7.4136-5.2892 9.188.0793.5466-.2995 1.0539-.846 1.1332s-1.054-.2995-1.1332-.8461c-.3512-2.4204.3732-7.7571 6.2582-11.2012.4767-.2789 1.0892-.1187 1.3682.358"/></svg>
